X:1
T:THE SPECTRE CHASE
T:THE SPECTRE CHASE
T:PAUL PERILLO
T:1881 by GIBBONS &amp; STONE
T:1881 by GIBBONS &amp; STONE
T:1881 by GIBBONS &amp; STONE
T:1881 by GIBBONS &amp; STONE
T:1881 by GIBBONS &amp; STONE
T:1881 by GIBBONS &amp; STONE
T:1881 by GIBBONS &amp; STONE
T:1881 by GIBBONS &amp; STONE
C:PAUL PERILLO
Z:1881 by GIBBONS & STONE
%%score { ( 1 2 4 6 ) | ( 3 5 ) }
L:1/8
M:6/8
K:Ab
V:1 treble nm="Piano" snm="Pno."
V:2 treble 
V:4 treble 
V:6 treble 
V:3 bass 
V:5 bass 
V:1
!f! (!^!F,CF z Gc | f z f c') z2 | !>![=EGd]3 !>![FAc]3 | !^![cgc']3 z2 z || %4
"^Presto." (!^!F,CF AGc | fxf [c'f']) z2 | [ad']gf [ac']gf | [a=bf'a']3 [g_b=e'g']3 | %8
 (!^!F,CF z Gc | fxf [c'f']) z2 | [eg]__ed [_ea]=dc | !>![egbe']3!ff! !^![=ebc'=e']3 | %12
 (!^!F,CF z Gc | fxf [c'f']) z2 | [ad']gf [ac']gf | !^![a=bf'a']3 !^![g_b=e'g']3 | (!>!A,DF Adf) | %17
({/b} aga !^![ad'a']3) |!<(!!8va(! [=e'g']=d'c' [g'c'']f'e'!<)! | %19
 !^![f'c''f'']2!8va)! z!f!!>(! !^![Fcf]2 z!>)! | [dg]c[dg] [gb]ag | [ac']g([ac'] c)d=d | %22
 [df]c[df] G z z | [Ac]G([Ac] !wedge!E) z z | [dg]c([dg] [bd'])ag | [ac']g([ac'] c) z z | %26
!ff! (G!<(!cg) (Aca)!<)! | !^![Gcg]3- [Gcg]2 z | [dg]c[dg] [bd']ag | [ac']g([ac'] c)d=d | %30
 [df]c([df] G) z z | [Ac](G[Ac] E) z z | [dg]c[dg] [bd']ag | [ac']g([ac'] c) z z | %34
 [=d'a']f[d'a']!8va(! f'[=d''a'']f' | [=e'b'c''=e''] z z!8va)! [cegc'] z z | (!^!F,CF z GA | %37
 fxf [c'f']) z2 | [ad']gf [ac']gf | !^![abf'a']3 !^![gb=e'g']3 | (!^!F,CF z Gc | fxf [c'f']) z2 | %42
 [eg]__ed [_ea]dc | [=egbe']3 [ebc'=e']3 | !^!F,CF z Gc | fxf [c'f'] z2 | [ad']gf [ac']gf | %47
 [a=bf'a']3 [g_b=e'g']3 | (!^!A,DF Adf) |{/b} a(ga !^![ad'f']3) |!8va(! [=e'g']=d'c' [g'c'']f'e' | %51
 [f'c''f'']2 z!8va)! [Fcf]2 z ||[K:F] [ac']cB A[cf]F |!<(! !>![CGc]3 !^![CGc]2!<)! z | %54
 [_ad']gf [d'f']c'_c' | [bd']gf [eg]dc | [ac']cB A[cf]!<(!F | !>![CGc]3!<)! !^![CGc] z z | %58
 [eg]dc [g=b]fd | ([gc']ed AcC) | [ac']cB A[cf]F |!<(! !>![DGc]3 !^![CGc]!<)! z z | %62
 [_ad']gf [d'f']c'_c' | [bd']gf [eg]dc | [ac']gf!8va(! [_e'g']d'c' | [d'f']^c'(d' [b'd'']) z z | %66
 ([a'c'']f'c' ^c'=c'=b)!8va)! | ([ac']fc _dc=B) | ([Ac]FC) z2 z | [E_Bc]3- [EBc]2 z |] %70
[K:Ab] (!^!F,CF z Gc | fxf [c'f']) z2 | [ad']gf [ac']gf | !^![a=bf'a']3 !^![g_b=e'g']3 | %74
 (!^!F,CF z Gc | fxf [c'f']) z2 |!<(! [eg]__e=d [_ea]dc!<)! | !^![egbe']3 !^![=ebc'=e']3 | %78
 (!^!F,CF z Ac | fxf [c'f']) z2 | [ad']gf!<(! [ac']gf | !^![a=bf'a']3!<)! !^![g_b=e'g']3 | %82
!f! (!>!A,DF Adf) |!<(!{/b} ag(a!<)! [ad'f']3) |!8va(!!8va(! [=e'g']=d'c' [g'c'']f'e' | %85
 !^![f'c''f'']2 z!8va)!!8va)! !^![Fcf]2 z ||[K:Eb]!ff! (=B,F=B z Gd | bxb [f'=b']) z2 | %88
!8va(! !^![d'g'=b'd'']2!8va)! z ([bd']gB | z2 z z2 z) | !^![gc'e'g']2 z ([eg]cG | AGF [EG]CG,) | %92
 !^![gbd'g']2 z!>(! ([dg]=BG!>)! |"_rall." z2 z [DG]=B,!fermata!G,) ||"^a tempo." [eg]dc [gc']ec | %95
 [f=b]=ed [df]c=B | [_eg]dc [Gc]^FG | !^![E=Be]3 [FBd] z z | [eg]dc [gc']ec | [dg]^cd [gb]=ag | %100
 [^fd']g[ad'] =a[bd']a | [gd'] z z !arpeggio![f=bd'g'] z z | [eg]dc [gc']ec | [d=b]=ed [df]c=B | %104
 [_eg]dc [Gc]^FG | !^![E=Be]3 !wedge![EBd] z z | [ac']gf [c'f']af | [e'g']ag [eg]cG | %108
 ([d'g']=bg z2 z) | ([dg]=BG EDC) | ([DG]=B,G,) ([Dc]=B,A,) | %111
!>(! ([EG]"_rall."CG,) ([FG]!>)!=B,G,) |"^a tempo." [eg]dc [gc']ec | [eg]=ed [dg]c=B | %114
 [_eg]dc [Gc]^FG | !^![E=Be]3 !wedge![FBd] z z | [eg]dc [gc']ec | [dg]^cd [bd']=ag | %118
 [^fd']g[ad'] =a[bd']a |!<(! [gd'] z z !arpeggio!!^![fb=d'g'] z z!<)! | [eg]dc [fc']ec | %121
 [f=b]=ed [df]c=B | [_eg]dc!<(! [Gc]^FG | !^![E=Be]3!<)! !wedge![EBe] z z | [ac']gf [c'f']af | %125
 [e'g']c'g [eg]cG | ([d'g']=bg agf) | ([dg]=BG AGF) | [DG]=B,G, z2 z | %129
!<(! !wedge![=B,DG] z z!<)! !^![gbd'g'] z z ||[K:Ab] [dg]c[dg] [bd']ag | [ac']g([ac'] c)d=d | %132
 [df]c([df] !wedge!G) z z | [Ac]G([Ac] !wedge!E) z z | [dg]c[dg] [bd']ag | %135
 [ac']g([ac'] !wedge!c) z!ff! z |!<(! (!^!Bcg) (!^!Aca)!<)! | !^![Gcg]3-!ff! [Gcg] z z | %138
 [dg]c[dg] [bd']ag | [ac']f([ac'] c)d=d | [df]c([df] !wedge!G) z z | [Ac]G([Ac] !wedge!E) z z | %142
 [dg]c[dg] [bd']ag | [ac']g([ac'] !wedge!c) z z | [=bf']f[bf']!8va(! f'[=b'f'']f' | %145
!ff! !^![=e'_b'c''=e'']!>(! z z!8va)! !^![cegc'] z z!>)! |!f! (!^!F,CF z Gc | fxf [c'f']) z2 | %148
 [ad']gf [ac']gf | !^![a=bf'a']3!ff! !^![=eb=e'g']3 | (!^!F,CF z Gc | fxf [c'f']) z2 | %152
 [eg]__ed [_ea]!<(!dc | [abf'a']3!<)!!ff! [g_c'=f'a']3 | (!^!F,CF z Gc |{/g} f z f [c'f']) z2 | %156
[K:Ab] [ad']gf [ac']gf | [a=bf'a']3 [g_b=e'g']3 | A,DF A!<(!df |{/b} (ag!<)!a !^![ad'a']3) | %160
!8va(! [=e'g']=d'c' [g'c'']f'e' | !^![f'c''f'']2 z!8va)! !^![Fcf]2 z ||[K:F] [ac']cB A[cf]F | %163
 !>![CGc]3 !^![CGc] z z | [_ad']gf [bd']=a_a | [bd']gf [eg]dc | [ac']gf A[cf]F | %167
 !>![CGc]3 !^![CFc] z z | [_ad']gf [bd']c'_c' | [d'f']gf [eg]dc | [ac']gf!<(! A[cf]F | %171
 !>![CGc]3!<)! !^![CGc] z z | [eg]dc [g=b]fd | ([gc']ec GcC) | [ac']cB A[cf]F | %175
!<(! !>![CGc]3 !^![CGc]!<)! z z | [_ad']gf [bd']c'_c' | [bd']gf [eg]dc | [ac']cB A[cf]F | %179
 !>![CGc]3 !^![CGc] z z | [eg]dc [g=b]fd | ([gc']ec GcC) | [ac']cB!<(! A[cf]F | %183
 !>![CGc]3!<)! !^![CGc] z z | [_ad']gf [bd']=a_a | [bd']gf [eg]dc | [ac']gf!8va(! [_e'g']d'c' | %187
 [d'f']^c'd' !wedge![b'd''] z z | [fa'c'']f'c' _d'c'=b!8va)! | ([ac']fc _dc=B) | [Ac]FC z2 z | %191
 [EBc]3- [EBc]2 z |[K:Ab] (!^!F,CF z Gc | fxf [c'f']) z2 | [ad']gf [ac']_gf | %195
 !^![abf'a']3 !^![gb=e'g']3 | (!^!F,DF z Gc | z f[c'f']) z2 z | [eg]__ed [_ea]dc | %199
!<(! [gbd'g']3!<)! !^![=ebc'f']3 | (!^!F,CF z Gc | fxf [c'f']) z2 | [ad']gf [ac']gf | %203
 !>![abf'a']3 !^![gb=e'g']3 | (A,DF Adf) |{/b} aga !^![ad'a']3 |!8va(! [=e'g']=d'c' [g'c'']f'e' | %207
!ff!!<(! !^![f'c''f'']2!8va)! z !^![Fcf]3!<)! | [dg]c[dg] [bd']ag | [ac']g([ac'] c)d=d | %210
 [df]c[df] !wedge!G z z | [dg]c[dg] [bd']gf | [ac']g([ac'] !wedge!c) z2 | %213
 [=bf']f[bf']!8va(! f'[b'f'']f' | !^![=e'_b'c''=g''] z!8va)! !^![gb=d'g']2 z z | (F,CF z Gc | %216
 fxf [c'f']) z2 | [ad']gf [ac']gf | !>![abf'a']3 !^![g_b=e'g']3 | (!>!A,DF!<(!!<(! Adf) | %220
{/b} (ag!<)!a!<)! !^![ad'a']3) |!<(!!8va(! [=e'g']=d'c' [g'c'']f'e'!<)! | %222
!ff!!<(! !^![f'c''f'']2 z!8va)! !^![Ada]2!<)! z | %223
!ff!!8va(!!<(! [a'd''a'']2 z!8va)! !^![Fcf]2!<)! z | %224
!ff!!8va(! [a'c''f'']2 z!8va)!!>(! !>![Aca]3!>)! |] %225
V:2
 x3 !>!A2 z | x a2 z z2 | x ag x gf | x6 || x6 | x a2 z z2 | x6 | x6 | x3 A2 z | x a2 z z2 | x6 | %11
 x6 | x3 A2 z | x a2 z z2 | x6 | x6 | x6 | x6 |!8va(! x6 | x2!8va)! x4 | x6 | x6 | x6 | x6 | x6 | %25
 x6 | x6 | x6 | x6 | x6 | x6 | x6 | x6 | x6 | x3!8va(! x3 | x3!8va)! x3 | z2 z A2 z | x a2 z z2 | %38
 x x x x2 x | x6 | x3 A2 z | x a2 z z2 | z z z z2 z | x6 | x3 A2 z | x a2 z z2 | x6 | x6 | x6 | %49
 x6 |!8va(! x6 | x3!8va)! x3 ||[K:F] x6 | x6 | x6 | x6 | x6 | x6 | x6 | x6 | x6 | x6 | x6 | x6 | %64
 x3!8va(! x3 | x6 | x6!8va)! | x6 | x6 | x6 |][K:Ab] x3 A2 z | x a2 z z2 | z6 | x6 | x3 A2 z | %75
 x a2 z z2 | x6 | x6 | x3 A2 z | x a2 z z2 | x x x x2 x | x6 | x6 | x6 |!8va(!!8va(! x6 | %85
 x3!8va)!!8va)! x3 ||[K:Eb] x3 [Ae]2 z | x [fc']2 z z2 |!8va(! x2!8va)! x4 | edc [=Bd]GD | x6 | %91
 x6 | x6 | AGF x2 z || x6 | x6 | x6 | x6 | x6 | x6 | x6 | x6 | x6 | x6 | x6 | x6 | x6 | x6 | %108
 x3 edc | x6 | x6 | x6 | x6 | x6 | x6 | x6 | x6 | x6 | x6 | x6 | x6 | x6 | x6 | x6 | x6 | x6 | %126
 x3 z2 z | z2 z x x2 | x6 | x6 ||[K:Ab] x6 | x6 | x6 | x6 | x6 | x6 | x6 | x6 | x6 | x6 | x6 | x6 | %142
 x6 | x6 | x3!8va(! x3 | x3!8va)! x3 | x3 A2 z | x a2 z z2 | x6 | x6 | x3 A2 z | x a2 z z2 | z6 | %153
 x6 | x3 A2 z | x a2 z z2 |[K:Ab] x6 | x6 | x6 | x6 |!8va(! x6 | x3!8va)! x3 ||[K:F] x6 | x6 | x6 | %165
 x6 | x6 | x6 | x6 | x6 | x6 | x6 | x6 | x6 | x6 | x6 | x6 | x6 | x6 | x6 | x6 | x6 | x6 | x6 | %184
 x6 | x6 | x3!8va(! x3 | x6 | x3 z2 z!8va)! | z6 | x6 | x6 |[K:Ab] x3 A2 z | x a2 z z2 | x6 | x6 | %196
 x3 A2 z | a2 z z2 x | z6 | x6 | x3 c2 z | x a2 z z2 | x6 | x6 | x6 | x z2 z z z |!8va(! z6 | %207
 x2!8va)! x4 | x6 | x6 | x6 | x6 | x6 | x3!8va(! x3 | x2!8va)! x4 | x3 A2 z | x z x z z2 | z6 | %218
 x6 | x6 | x6 |!8va(! x6 | x3!8va)! x3 |!8va(! x3!8va)! x3 |!8va(! x3!8va)! x3 |] %225
V:3
 !arpeggio!!^![F,,C,F,]2 z x2 x | x6 | x6 | !arpeggio!!^![C,G,C]3 !>!C,3 || %4
 !arpeggio!!^![F,,C,F,]2 z x2 x | x2 x x2[K:treble] x | !>![DAd]3 !>![CGc]3 | %7
 !>![=B,F=B]3 !>![CGc]3[K:bass] | !arpeggio!!^![D,,A,,F,]2 z x3 | z6 | %10
 !>![D,,G,,D,]3 !>![C,,G,,C,]3 | !>![B,,,G,,B,,]3[K:bass] !arpeggio!!^![C,G,C]3 | %12
 !arpeggio!!^![F,,C,A,]2 z x2 x | x2 x x2[K:treble] x | !>![DAd]3 !>![CAc]3 | %15
 !>![=B,F=B]3 [=DGc]3[K:bass] | !arpeggio!!^![F,,C,F,]2 z x x[K:treble] x | %17
 !>![Ge]3 !>![Fd]3[K:bass] | [G,,,G,,] z z [G,B,F] z z | %19
 [F,,,F,,] z[K:treble] [A,CA]2 z[K:bass] z | [E,,E,] z z [G,B,F] z z | [A,,A,] z z [E,A,C] z z | %22
 [E,,E,] z z [E,A,C] z z | [A,,A,] z z [E,A,C] z z | [E,,E,] z z [G,B,F] z z | %25
 [A,,A,] z z [E,A,C] z z | [=E,C]3 [F,C]3 | !arpeggio![C,G,=E]3!ff! [C,,C,]3 | %28
 [F,,E,] z z [G,B,F] z z | [A,,A,] z z [E,A,C] z z | [E,,E,] z z [E,A,C] z z | %31
 [A,,A,] z z [A,CF] z z | [=E,,=E,] z z [G,B,C=E] z z | [F,,F,] z z [A,CF] z z | %34
 [D,,D,] z z [G,=B,F] z z | [C,,C,] z z[K:treble] [CEB] z z[K:bass] | %36
 !arpeggio!!^![F,,C,A,]2 z x2 x | z2 z x2[K:treble] x | [DAd]3 [CAc]3 | %39
 !>![=B,F=B]3 !>![CGc]3[K:bass] | !arpeggio!!^![F,,C,A,]2 z x2 x | x2 x x2[K:treble] x | %42
 !>![B,EB]3 !>![A,EA]3 | !>![G,EG]3[K:bass] !arpeggio!!^![C,G,=E]3 | %44
 !arpeggio!!^![F,,C,A,]2 z z2 z | x2 x x2[K:treble] x | [DAd]3 [CAc]3 | [=B,F=B]3 [CGc]3[K:bass] | %48
 (!arpeggio!!^![D,,-C,-F,]3 [D,,C,F,]2)[K:treble] x | [_Ge]3 [Fd]3/2 x/[K:bass] x | %50
 [=G,,,=G,,] z z [G,B,C=E]2 z | [F,,,F,,] z z[K:treble] [A,CA]2[K:bass] x || %52
[K:F] ([F,,C,]3 !>!A,3) | B,A,B, A, z z | [F,,F,] z z [_A,_CF] z z | [E,,E,] z z [G,B,CE] z z | %56
 ([F,,C,]3 !>!A,3) | B,A,B, !wedge!A, z z | [G,,G,] z z [G,=B,F] z z | %59
 [C,,C,] z z !>![C,E,_B,]2 z | ([F,,C,]3 A,3) | B,A,B, !wedge!A, z z | [F,,F,] z z [_A,_CF] z z | %63
 [E,,E,] z z [G,B,CE] z z | [_E,,_E,] z z[K:treble] [EFA] z z | %65
 [D,,D,] z z[K:treble] [DFB] z[K:bass] z | [C,A,]3 x2 x | x6 | x2 z (_DC=B,) | (!>!C3 !^!C,3) |] %70
[K:Ab] !arpeggio!!^![F,,C,A,]2 z x2 x | x2 x x2[K:treble] x | !>![DAd]3 !>![CAc]3 | %73
 !>![B,FB]3 !>![CGc]3[K:bass] | !arpeggio![F,,C,A,]2 z z x x | x2 x x2[K:treble] x | %76
 [B,EB]3 [A,EA]3 | !>![G,EG]3[K:bass] !arpeggio![C,G,=E]3 | !arpeggio!!^![F,,C,A,]2 x x2 x | %79
 x2 x x2[K:treble] x | !>![DAd]3 !>![CAc]3 | !>![B,FB]3 !>![CGc]3[K:bass] | %82
 !arpeggio!!^![D,,A,,F,]3- [D,,A,,F,] z[K:treble] z | !>![_Ge]3 !>![Fd]3[K:bass] | %84
 [=G,,,=G,,] z z [G,B,C=E] z z | [F,,,F,,] z z[K:treble] [A,CA]2[K:bass] x || %86
[K:Eb] !^![A,,=D,A,]2 z x2 x | x6 | [G,,,G,,]2 z z2 z | x6 | [G,,,G,,]2 z z2 z | x6 | %92
 [G,,,G,,]2 z z2 z | x2 x x2 !fermata!x || [C,,C,] z z [G,CE] z z | [D,,D,] z z [G,=B,F] z z | %96
 [E,,E,] z z [G,CE] z z | [G,,,G,,] z z [G,=B,D] z z | [C,,C,] z z [G,CE] z z | %99
 [D,,D,] z z [G,B,E] z z | [D,,D,] z z [F,A,B,^D] z z | [G,,G,] z z [G,=B,F] z z | %102
 [C,,C,] z z [G,CE] z z | [D,,D,] z z [G,=B,F] z z | [C,,C,] z z [G,CE] z z | %105
 [G,,,G,,] z z !wedge![A,CF] z z | [A,,,A,,] z z [A,CF] z z | [G,,,G,,] z z [G,CE] z z | %108
 [G,,,G,,] z z x2 x | x6 | x x z !>![F,,F,]3 | !>![E,,E,]3 !>![D,,D,]3 | [C,,C,] z z [G,CE] z z | %113
 [D,,D,] z z [G,=B,F] z z | [E,,E,] z z [G,CE] z z | [G,,,G,,] z z !wedge![G,=B,D] z z | %116
 [C,,C,] z z [G,CE] z z | [D,,D,] z z [G,B,E] z z | [D,,D,] z z [A,CD^F] z z | %119
 [G,,G,] z z [G,=B,F] z z | [C,,C,] z z [G,CE] z z | [D,,D,] z z [G,=B,F] z z | %122
 [E,,E,] z z [G,CE] z z | [G,,,G,,] z z !wedge![G,=B,D] z z | [A,,,A,,]2 z [A,CF]2 z | %125
 [A,,,G,,] z z [G,CE] z z | [G,,,G,,] z z x2 x | x6 | z2 z A,G,F, | !wedge!G, z z [G,,,G,,] z z || %130
[K:Ab] [E,,E,] z z [E,G,D]2 z | [E,,E,]2 z [E,G,D]2 z | [E,,E,] z z [E,G,D] z z | %133
 [A,,A,] z z [E,A,C] z z | [E,,E,] z z [E,G,D] z z | [A,,A,] z z [E,A,C] z z | %136
 !>![=E,C]3 !>![F,C]3 | !arpeggio!!^![C,G,=E]3 !^![C,,C,]3 | [E,,E,] z z [E,G,D] z z | %139
 [A,,A,] z z [E,A,C] z z | [E,,E,] z z [E,G,D] z z | [A,,A,] z z [E,A,C] z z | %142
 [=E,,=E,] z z [G,B,C=E] z z | [F,,F,] z z [A,CF] z z | [D,,D,] z z [G,=B,F] z z | %145
 [C,,C,] z z[K:treble] [C=EB] z z[K:bass] | !arpeggio!!^![F,,C,A,] z z z2 z | x2 x x2[K:treble] x | %148
 !>![DAd]3 !>![CAc]3 | [G,EG]3[K:bass] !arpeggio!!^![C,G,=E]3 | !arpeggio!!^![F,,C,A,]2 z x2 x | %151
 x2 x x2[K:treble] x | !>![B,EB]3 !>![A,EA]3 | !>![G,EG]3 !>![CGc]3[K:bass] | %154
 !>![=D,,A,,=D,]3- [D,,A,,D,]2 x | x2 x x2[K:treble] x |[K:Ab] !>![DAd]3 !>![CAc]3 | %157
 !>![B,FB]3 !>![CGc]3[K:bass] | !>![D,,A,,F,]3- [D,,A,,F,]3[K:treble] | [_Ge]3 [Gd]3[K:bass] | %160
 [G,,,G,,] z z [G,B,C=E] z z | [F,,,F,,] z z[K:treble] [A,CA]2 z[K:bass] ||[K:F] ([F,,C,]3 A,3) | %163
 B,A,B, !wedge!A, z z | [F,,D,] z z [_A,_CF] z z | [E,,E,] z z [G,B,CE] z z | ([F,,C,]3 !>!A,3) | %167
 B,A,B, !wedge!A, z z | [F,,E,] z z [_A,_CF] z z | [E,,E,] z z [G,B,CE] z z | ([F,,C,]3 !>!A,3) | %171
 B,A,B, !wedge!A, z z | [G,,G,] z z [G,=B,F] z z | [C,,C,] z z [C,E,B,] z z | ([F,,C,]3 !>!A,3) | %175
 B,A,B, !wedge!A, z z | [F,,F,] z z [_A,_CF] z z | [E,,E,] z z [G,B,CE] z z | ([F,,C,]3 !>!A,3) | %179
 B,A,B, !wedge!A, z z | [G,,G,] z z [G,=B,F] z z | [C,,C,] z z [C,E,B,] z z | ([F,,C,]3 !>!A,3) | %183
 B,A,B, !>!A, z z | [F,,F,] z z [_A,_CF] z z | [F,,F,] z z [G,B,CE] z z | %186
 [_E,,_E,] z z[K:treble] [CEFc] z z[K:bass] | [D,,D,]2 z[K:treble] [DFB] z z[K:bass] | %188
 !arpeggio![C,A,]3 x2 x | z6 | z2 z _DC=B, | (!>!C3 !>!C,3) | %192
[K:Ab] !arpeggio!!^![F,,C,A,]2 z x2 x | x2 x x2[K:treble] x | !>![DAd]3 !>![CAc]3 | %195
 !>![=B,F=B]3 !>![CGc]3[K:bass] | !arpeggio!!^![F,,C,B,]2 z x2 x | x x x x2[K:treble] x | %198
 !>![B,EB]3 !>![A,EA]3 | !>![G,EG]3[K:bass] !arpeggio!!^![C,G,=E]3 | %200
 !arpeggio!!^![F,,C,A,]2 z z2 z | x2 x x2[K:treble] x | !>![DAd]3 !>![CAc]3 | %203
 !>![=B,F=B]3 !>![CGc]3[K:bass] | !^![=D,,A,,=D,]3- [D,,A,,=D,]3[K:treble] | %205
 !>![_Ge]3 !>![Gd]3[K:bass] | [F,,,F,,] z z [G,B,C=E] z z | %207
 [F,,,F,,] z z[K:treble] [A,CA]3[K:bass] | [E,,E,] z z [E,G,D] z z | [A,,A,] z z [E,C] z z | %210
 [F,,F,] z z [E,A,C] z z | [=E,,=E,] z z [G,B,C=E] z z | [F,,F,] z z [A,CF] z z | %213
 [D,,D,] z z [G,=B,F] z z | [C,,C,] z z[K:treble] [C=EA] z z[K:bass] | %215
 !arpeggio![F,,C,F,]2 z x2 x | x2 x x2[K:treble] x | !>![DAd]3 !>![CAc]3 | %218
 !>![=B,F=B]3 !>![CGc]3[K:bass] | !^![D,,A,,=D,]3- !>![D,,A,,D,]3[K:treble] | %220
 !>![Ae]3 !>![Fd]3[K:bass] | !>![=G,,,=G,,] z z [G,B,C=E] z z | %222
 [F,,,F,,] z[K:treble] [A,CA]2 z[K:bass] x | !>![F,,,F,,] z z !^![F,A,DF] z z | %224
 !>![F,,,F,,] z z !>![F,A,CF]3 |] %225
V:4
 x6 | x6 | [bd'] x x [ac'] x x | x6 || x6 | x6 | x6 | x6 | x6 | x6 | x6 | x6 | x6 | x3 x x2 | %14
 x x x x2 x | x6 | x6 | x6 |!8va(! x6 | x2!8va)! x4 | x6 | x6 | x6 | x6 | x6 | x6 | x6 | x6 | x6 | %29
 x6 | x6 | x6 | x6 | x6 | x3!8va(! x3 | x3!8va)! x3 | x6 | x6 | x6 | x6 | x6 | x6 | x6 | x6 | x6 | %45
 x6 | x6 | x6 | x6 | x6 |!8va(! x6 | x3!8va)! x3 ||[K:F] x6 | x6 | x6 | x6 | x6 | x6 | x6 | x6 | %60
 x6 | x6 | x6 | x6 | x3!8va(! x3 | x6 | x6!8va)! | x6 | x6 | x6 |][K:Ab] x6 | x6 | x6 | x6 | x6 | %75
 x6 | x6 | x6 | x6 | x6 | x6 | x6 | x6 | x6 |!8va(!!8va(! x6 | x3!8va)!!8va)! x3 ||[K:Eb] x6 | x6 | %88
!8va(! x2!8va)! x4 | x6 | x6 | x6 | x6 | x6 || x6 | x6 | x6 | x6 | x6 | x6 | x6 | x6 | x6 | x6 | %104
 x6 | x6 | x6 | x6 | x6 | x6 | x6 | x6 | x6 | x6 | x6 | x6 | x6 | x6 | x6 | x6 | x6 | x6 | x6 | %123
 x6 | x6 | x6 | x6 | x3 z2 z | x6 | x6 ||[K:Ab] x6 | x6 | x6 | x6 | x6 | x6 | x6 | x6 | x6 | x6 | %140
 x6 | x6 | x6 | x6 | x3!8va(! x3 | x3!8va)! x3 | x6 | x6 | x6 | x6 | x6 | x6 | x6 | x6 | x6 | x6 | %156
[K:Ab] x6 | x6 | x6 | x6 |!8va(! x6 | x3!8va)! x3 ||[K:F] x6 | x6 | x6 | x6 | x6 | x6 | x6 | x6 | %170
 x6 | x6 | x6 | x6 | x6 | x6 | x6 | x6 | x6 | x6 | x6 | x6 | x6 | x6 | x6 | x6 | x3!8va(! x3 | x6 | %188
 x6!8va)! | x6 | x6 | x6 |[K:Ab] x3 z x2 | x z x x2 x | x6 | x6 | x6 | x6 | x6 | x6 | x6 | x6 | %202
 x6 | x6 | x6 | x6 |!8va(! x6 | x2!8va)! x4 | x6 | x6 | x6 | x6 | x6 | x3!8va(! x3 | x2!8va)! x4 | %215
 x6 | x6 | x6 | x6 | x6 | x6 |!8va(! x6 | x3!8va)! x3 |!8va(! x3!8va)! x3 |!8va(! x3!8va)! x3 |] %225
V:5
 x6 | x6 | x6 | x3 !>!C,,3 || x6 | x5[K:treble] x | x3 x/ x/ x x | x5[K:bass] x | x5 x | x6 | %10
 x2 x x2 x | x3[K:bass] x3 | x6 | x5[K:treble] x | x6 | x x x x[K:bass] x x | x5[K:treble] x | %17
 x4[K:bass] x x | x6 | x2[K:treble] x3[K:bass] x | x6 | x6 | x6 | x6 | x6 | x6 | x6 | x6 | x6 | %29
 x6 | x6 | x6 | x6 | x6 | x6 | x3[K:treble] x5/2[K:bass] x/ | x6 | x5[K:treble] x | x6 | %39
 x3 x x[K:bass] x | x6 | x5[K:treble] x | x6 | x3[K:bass] x3 | x6 | x5[K:treble] x | x6 | %47
 x3 x x[K:bass] x | x5[K:treble] x | x3 x x[K:bass] x | x6 | x3[K:treble] x2[K:bass] x ||[K:F] x6 | %53
 x6 | x6 | x6 | x6 | x6 | x6 | x6 | x6 | x6 | x6 | x6 | x3[K:treble] x3 | %65
 x3[K:treble] x2[K:bass] x | x6 | x6 | x6 | x6 |][K:Ab] x6 | x5[K:treble] x | x6 | %73
 x3 x x[K:bass] x | x6 | x5[K:treble] x | x6 | x2[K:bass] z z2 z | x6 | x5[K:treble] x | x6 | %81
 x3 x x[K:bass] x | x5[K:treble] x | x3 x x[K:bass] x | x6 | x3[K:treble] x2[K:bass] x || %86
[K:Eb] x6 | x6 | x6 | x6 | x6 | x6 | x6 | x6 || x6 | x6 | x6 | x6 | x6 | x6 | x6 | x6 | x6 | x6 | %104
 x6 | x6 | x6 | x6 | x6 | x6 | x6 | x6 | x6 | x6 | x6 | x6 | x6 | x6 | x6 | x6 | x6 | x6 | x6 | %123
 x6 | x6 | x6 | x6 | x6 | x6 | x6 ||[K:Ab] x6 | x6 | x6 | x6 | x6 | x6 | x6 | x6 | x6 | x6 | x6 | %141
 x6 | x6 | x6 | x6 | x3[K:treble] x5/2[K:bass] x/ | z x5 | z6[K:treble] | x6 | x3[K:bass] x3 | x6 | %151
 x5[K:treble] x | x6 | x5[K:bass] x | x5 z | x5[K:treble] x |[K:Ab] x6 | x3 x x[K:bass] x | %158
 z2 x2 x[K:treble] x | x x x x2[K:bass] x | x6 | x2 z[K:treble] x2 x/[K:bass] x/ ||[K:F] x6 | x6 | %164
 x6 | x6 | x6 | x6 | x6 | x6 | x6 | x6 | x6 | x6 | x6 | x6 | x6 | x6 | x6 | x6 | x6 | x6 | x6 | %183
 x6 | x6 | x6 | x3[K:treble] x2 x/[K:bass] x/ | x2 x[K:treble] z2 x/[K:bass] x/ | x6 | x6 | x6 | %191
 x6 |[K:Ab] x6 | x5[K:treble] x | x6 | x3 x x[K:bass] x | x6 | x5[K:treble] x | x6 | %199
 x3[K:bass] x3 | x6 | x5[K:treble] x | x6 | x5[K:bass] x | z2 x x z[K:treble] x | x5[K:bass] x | %206
 x6 | x3[K:treble] x2[K:bass] x | x6 | x6 | x6 | x6 | x6 | x6 | x3[K:treble] x5/2[K:bass] x/ | x6 | %216
 x5[K:treble] x | x6 | x4 x[K:bass] x | x5[K:treble] x | x5[K:bass] x | x6 | %222
 x2[K:treble] x3[K:bass] x | x6 | x6 |] %225
V:6
 x6 | x6 | x6 | x6 || x6 | x z x4 | x6 | x6 | x6 | x z x4 | x6 | x6 | x6 | x z x4 | x6 | x6 | x6 | %17
 x6 |!8va(! x6 | x2!8va)! x4 | x6 | x6 | x6 | x6 | x6 | x6 | x6 | x6 | x6 | x6 | x6 | x6 | x6 | %33
 x6 | x3!8va(! x3 | x3!8va)! x3 | x6 | x z x4 | x6 | x6 | x6 | x z x4 | x6 | x6 | x6 | x z x4 | %46
 x6 | x6 | x6 | x6 |!8va(! x6 | x3!8va)! x3 ||[K:F] x6 | x6 | x6 | x6 | x6 | x6 | x6 | x6 | x6 | %61
 x6 | x6 | x6 | x3!8va(! x3 | x6 | x6!8va)! | x6 | x6 | x6 |][K:Ab] x6 | x z x4 | x6 | x6 | x6 | %75
 x z x4 | x6 | x6 | x6 | x z x4 | x6 | x6 | x6 | x6 |!8va(!!8va(! x6 | x3!8va)!!8va)! x3 || %86
[K:Eb] x6 | x6 |!8va(! x2!8va)! x4 | x6 | x6 | x6 | x6 | x6 || x6 | x6 | x6 | x6 | x6 | x6 | x6 | %101
 x6 | x6 | x6 | x6 | x6 | x6 | x6 | x6 | z2 z z2 z | x6 | x6 | x6 | x6 | x6 | x6 | x6 | x6 | x6 | %119
 x6 | x6 | x6 | x6 | x6 | x6 | x6 | x6 | x6 | x6 | x6 ||[K:Ab] x6 | x6 | x6 | x6 | x6 | x6 | x6 | %137
 x6 | x6 | x6 | x6 | x6 | x6 | x6 | x3!8va(! x3 | x3!8va)! x3 | x6 | x z x4 | x6 | x6 | x6 | %151
 x z x4 | x6 | x6 | x6 | x6 |[K:Ab] x6 | x6 | x6 | x6 |!8va(! x6 | x3!8va)! x3 ||[K:F] x6 | x6 | %164
 x6 | x6 | x6 | x6 | x6 | x6 | x6 | x6 | x6 | x6 | x6 | x6 | x6 | x6 | x6 | x6 | x6 | x6 | x6 | %183
 x6 | x6 | x6 | x3!8va(! x3 | x6 | x5 z!8va)! | x6 | x6 | x6 |[K:Ab] x6 | x z x4 | x6 | x6 | x6 | %197
 x6 | x6 | x6 | x6 | x z x4 | x6 | x6 | x6 | x6 |!8va(! x6 | x2!8va)! x4 | x6 | x6 | x6 | x6 | x6 | %213
 x3!8va(! x3 | x2!8va)! x4 | x6 | x a2 z2 z | x6 | x6 | x6 | x6 |!8va(! x6 | x3!8va)! x3 | %223
!8va(! x3!8va)! x3 |!8va(! x3!8va)! x3 |] %225

